X:1
T:T
T:Votre cour devient mon azyle / Ariette oedipe
T:Lied / HS.81.Vanpelt.285
T:Een speelmansboek uit Maastricht/Tongeren (1786-1824) 
T:BRON: Lusthof-der-muziek.blogspot.com: Handschrift van VanPelt (1786-1824)  / Transcriptie door Ad Kwakernaat (2015) 
T:Naar een origineel van Sacchini Antonio (1730-1786) 
T:Genoteerd door Van der Elst Johan
T:Genoteerd door Van der Elst Johan
T:Genoteerd door Van der Elst Johan
Z:Een speelmansboek uit Maastricht/Tongeren (1786-1824)
Z:Genoteerd door Van der Elst Johan
%%score { 1 2 }
L:1/8
Q:1/4=94
M:2/4
K:C
V:1 treble nm="Viool"
V:2 treble nm="Viool"
V:1
"^Andantino" Gc e/c/d/B/ | ce/>g/ f/>e/d/>c/ | z/ B/[B,G]/[B,G]/ [B,G]G/>G/ | cc e/d/c/B/ | %4
 dc z c/>g/ | g/f/f/e/ e/d/d/^c/ |{^c} d2 d/e/f/d/ | cc e/d/c/B/ | c2 [eg]/[eg]/[eg]/[eg]/ | %9
 z/ B/4d/4[df]/[df]/ [df]G/>G/ | c2 z c/>e/ | e/d/d/d/ de/c/ | cB z d/g/ | ^f/<e/d/<c/ B/<A/c/A/ | %14
 G^F z d/>e/ | (dc) z B/c/ | BA z B/d/ | c2 B>c | BA z A/A/ | A2 e>G | ^F2 z d/d/ | g4 | %22
 !fermata!ge d^c | !fermata!d2 z3/2 d/ | d>B d/c/B/A/ |{A} B2 z B/G/ | G/^F/ c2 B | %27
{B} A2 A/e/c/A/ | G3{B} A | G z (d>B) | e z c>A | d/c/B/c/ d/e/^f/g/ |{^f} ed/c/ BA | G2 d^f/a/ | %34
 gd/B/ G/B/d/f/ | e/g/^f/4e/4d/4c/4 B/d/F/E/4F/4 | [B,G]/>[B,G]/[B,G]/>[B,G]/ [B,G]d/d/ | %37
 d>B d/c/B/A/ | AG z G/>G/ | f>d ec/e/ | d z/ d/ e/g/e/c/ | !fermata!G2 z G/G/ | c2 z c/>e/ | %43
 e/d/d/d/ d/d/e/f/ | ec z c/c/ | gf/<e/ d/<c/d/_B/ | A2 z A/A/ | d>e e/d/A/c/ |{c} B2 z G/g/ | %49
{g} f2 f/d/B/f/ |{f} e2 z c/g/ |{g} f2 f/d/B/f/ | fe z c/c/ | c2 c>_e | c2 z c/c/ | c>d f/_e/d/c/ | %56
 B2 z d/g/ | ^f_e dc | g4 | !fermata!g2 z3/2 G/ | cc e/d/c/B/ |{B} c2 z3/2 c/ | e>e g/f/e/d/ | %63
 e2 z e/>c/ | c/B/ f2 e |{e} d2 d/e/f/d/ | (c3{e} d) | c z g>e | A2 f>d | g/f/e/f/ g/e/d/c/ | %70
 fe/d/ cB | c2 fa | g3 B | c2 gb/d'/ | c'g/e/ c/_B/G/E/ | Fa/4f/4a/4f/4 e/g/c/4B/4A/4B/4 | %76
 c/>[EGc]/[EGc]/>[EGc]/ [EGc] z |] %77
V:2
 G>c (e/c/)!wedge!d/B/ | ce/g/ f/>e/d/>c/ | gG/G/ G z | c>c (e/d/c/B/) | %4
 z (e/4g/4)(e/4g/4) ec/>g/ | (g/f/)(f/e/) (e/d/)(d/^c/) | ^cd d/e/f/d/ | cc (e/d/c/B/) | %8
 z/ (c/4e/4)!wedge!g/!wedge!g/ !wedge!g/!wedge!g/!wedge!g/!wedge!g/ | z/ B/4d/4f/f/ f/f/f/f/ | %10
 z/ G/4c/4e/e/ e/e/e/e/ | z/ A/4^c/4d/d/ d/d/d/d/ | z/ G/4B/4d/d/ !wedge!d/!wedge!d/(d/g/) | %13
 ^f/>e/d/>c/ B/A/c/A/ | G(A/4^F/4A/4F/4) Fd | z/ c/c/c/ z/ B/B/B/ | z/ A/A/A/ z/ B/B/B/ | %17
 z/ c/c/c/ z/ B/B/B/ | A/A/A/A/ A/A/A/A/ | A/A/A/A/ A/A/A/A/ | A/d/d/d/ d/d/d/d/ | %21
 ^c/c/c/c/ c/c/c/c/ | !fermata!^c2 z2 | !fermata!d2 z2 | dB d/c/B/A/ | %25
 z B/4A/4B/4c/4 !wedge!d/(d/B/G/) | G/^F/ (c2 B) | z A AA | z B z A | G z (d>B) | e z cA | %31
 (d/c/B/c/) (d/e/^f/g/) | ^f/e/d/c/ BA | G/b/g/ z/ ^f>a | z/ g/d/B/ G/B/d/f/ | %35
 e/g/^f/4e/4d/4c/4 B/d/G/4F/4E/4F/4 | [G,G]/>[G,G]/[G,G]/>[G,G]/ [G,G] z | dB (d/c/B/A/) | %38
 z G/A/ B/c/d/e/ | fd/>f/ ec/e/ | dd/d/ !wedge!e/!wedge!g/!wedge!e/!wedge!c/ | !fermata!G2 z2 | %42
 z/ (c/4e/4).g/.g/ .g/.g/.g/.g/ | z/ (B/4d/4).f/.f/ .f/.f/.f/.f/ | z/ c/4e/4.g/.g/ .g/.g/.g/.g/ | %45
 z/ B/4e/4g/g/ g/g/g/g/ | z/ c/4f/4a/a/ a/a/a/a/ | z/ d/4^f/4a/a/ a/a/a/a/ | %48
 z/ d/4g/4b/b/ b/b/b/b/ | z/ f/f/f/ z/ f/f/f/ | z/ g/c'/g/ e/c/e/g/ | z/ f/f/f/ z/ f/f/f/ | %52
 z/ g/c'/g/ e/c/e/g/ | z/ _e/e/e/ z/ e/e/e/ | z/ _e/e/e/ z/ e/e/e/ | z/ _e/e/e/ z/ e/e/e/ | %56
 z/ .d/.d/.d/ .d/.d/.d/g/ | ^f/f/f/f/ f/f/f/f/ | g z/ E/ D/>E/D/>E/ | !fermata!D2 z2 | %60
 c>c (e/d/c/B/) | z d/4c/4B/4c/4{e} e/e/e | e>e (g/f/e/d/) | z{e} e/4d/4e/4f/4 !wedge!g/(g/e/c/) | %64
 c/B/ f2 e | z d dd | ce z d | c z ge | a z fd | g/f/e/f/ g/e/d/c/ | fe/d/ cB | %71
 c/4e/4e/4e/4e/4e/4e/4e/4 f/4f/4f/4f/4a/4a/4a/4a/4 | %72
"_BRON: Alamire uitgave \"Speelmansboek uit Maastricht\"\n vermeldt bij concordatie:\n              Sacchini Antonio (1730-1786), \nOedipe à Colone\n (1787)\n" g/4c'/4e/4c'/4e/4c'/4e/4c'/4 d/4b/4d/4b/4d/4b/4d/4b/4 | %73
 c'/e'/c'/ z/ b>d' | z/ c'/g/e/ c/_B/G/E/ | Fa/4f/4a/4f/4 e/g/c/4B/4A/4B/4 | %76
 c/>[G,E]/[G,E]/>[G,E]/ [G,E] z |] %77

